data/sheikah/a.svg

<!-- Generated by IcoMoon.io -->
<svg version="1.1" xmlns="http://www.w3.org/2000/svg" width="1024" height="1024" viewBox="0 0 1024 1024">
<title></title>
<g id="icomoon-ignore">
</g>
<path d="M153.5 273l119.5-119.5v597.5h478v-478h-279v279h199.5v119.5h-199.5l-119.5-119.5v-279l119.5-119.5h279l119.5 119.5v478l-119.5 119.5h-478l-119.5-119.5v-478zM552 352.5h119.5v119.5h-119.5v-119.5z"></path>
</svg>

<svg xmlns="http://www.w3.org/2000/svg" width="1024" height="1024" viewBox="0 0 1024 1024">
  <title/>
  <path d="M153.5 273 273 153.5V751h478V273H472v279h199.5v119.5H472L352.5 552V273L472 153.5h279L870.5 273v478L751 870.5H273L153.5 751zM552 352.5h119.5V472H552z"/>
</svg>
